!!!Melodie: O, dass ich Tausend Zungen hätte
!!!Typ: Lied
**kern	**silbe	**silbe	**silbe
*clefG2	*lang:DE	*lang:DE	*lang:DE
*k[b-]	*	*	*
*M4/4	*	*	*
4cc	Du	Lass	Lehr
4a	hast	uns#	uns,
4cc	uns,	#'re	ei#
=	=	=	=
4dd	Herr,	Lie#	#nan#
4cc	in	#be	#der
4b-	dir	oh#	zu
4a	ver#	#ne	ver#
=	=	=	=
2g	#bun#	Wan#	#ge#
4f	#den,	#ken,	#ben,
4a	nun	die	wie
=	=	=	=
4g	gib	Treu#	du
4f	uns	#e	in
4g	gnä#	lass	Chris#
4a	#dig	be#	#tus
=	=	=	=
4b-	das	#stän#	uns
4a	Ge#	#dig	ge#
2g	#leit.	sein.	#tan.
=	=	=	=
4r	%	%	%
4cc	Dein	Halt	Herr,
4a	sind	uns	gib
4cc	des	in	uns
=	=	=	=
4dd	Ta#	Wor#	teil
4cc	#ges	#ten	an
4b-	hel#	und	dei#
4a	#le	Ge#	#nem
=	=	=	=
2g	Stun#	#dan#	Le#
4f	#den,	#ken	#ben,
4a	dein	von	dass
=	=	=	=
4g	ist	Zorn,	nichts
4f	die	Be#	von
4g	Freu#	#trug	dir
4a	#de	und	uns
=	=	=	=
4b-	und	Lü#	schei#
4a	das	#ge	#den
2g	Leid.	rein.	kann.
=	=	=	=
4r	%	%	%
4g	Du	Lass	Mach
4g	seg#	uns	uns
4g	#nest	doch	zu
=	=	=	=
4a	un#	für#	dei#
4cc	#ser	#ei#	#nem
4cc	täg#	#nan#	Lob
4b	#lich'	#der	be#
=	=	=	=
2cc	Brot,	steh’n,	#reit,
4r	%	%	%
4cc	du	gib	heut’
=	=	=	=
4a	bist	Au#	mor#
4f	uns	#gen,	#gen
4dd	nah	and’#	und
4b-	in	#rer	in
=	=	=	=
4a	al#	Last	E#
4g	#ler	zu	#wig#
2f	Not.	seh’n.	#keit.
==	==	==	==
*-	*-	*-	*-
